src/16/actions/insert-text-frame.svg

<svg xmlns="http://www.w3.org/2000/svg" width="16" height="16"><defs><style id="current-color-scheme" type="text/css"></style></defs><path d="M2 1v1H1v1h1v10H1v1h1v1h1v-1h10v1h1v-1h1v-1h-1V3h1V2h-1V1h-1v1H3V1H2zm1 2h10v10H3V3zm1 1v2h3v6h2V6h3V4H4z" fill="currentColor" color="#565656"/></svg>

<svg xmlns="http://www.w3.org/2000/svg" width="16" height="16" viewBox="0 0 16 16">
 <defs>
  <style id="current-color-scheme" type="text/css">
   .ColorScheme-Text { color:#565656; } .ColorScheme-Highlight { color:#5294e2; }
  </style>
 </defs>
 <path style="fill:currentColor" class="ColorScheme-Text" d="M 2 1 L 2 2 L 1 2 L 1 3 L 2 3 L 2 13 L 1 13 L 1 14 L 2 14 L 2 15 L 3 15 L 3 14 L 13 14 L 13 15 L 14 15 L 14 14 L 15 14 L 15 13 L 14 13 L 14 3 L 15 3 L 15 2 L 14 2 L 14 1 L 13 1 L 13 2 L 3 2 L 3 1 L 2 1 z M 3 3 L 13 3 L 13 13 L 3 13 L 3 3 z M 4 4 L 4 6 L 7 6 L 7 12 L 9 12 L 9 6 L 12 6 L 12 4 L 4 4 z"/>
</svg>
